X:1
T:Erlaube mir, feins Mädchen
T:Erlaube mir, feins Mädchen
T:Kretzschmer, 1840 og Arnold, 1864
T:Sats: Johannes Brahms (1833-1897)
C:Sats: Johannes Brahms (1833-1897)
%%score [ 1 2 3 4 ]
L:1/8
Q:1/4=80
M:3/4
K:F
V:1 treble nm="Soprano"
V:2 treble nm="Alto"
V:3 treble-8 nm="Tenor"
V:4 bass nm="Bass"
V:1
!p!"^Zart" C2 | F A A3 B | (AG) G2 F F | E2 (EF) (GA) | F2 z2 C2 | (FA) A3 B | (AG) G2 F F | %7
w: 1.Er-|lau- be mir, feins|Mäd- * chen, in den|Gar- ten _ zu _|gehn, dass|ich _ mag dort|schau- * en, wie die|
w: 2.O|Mäd- * chen, o|Mäd- * chen, du _|ein- sa- * mes _|Kind, wer|hat _ den Ge-|dan- * ken _ in|
 E2 (EF) (GA) | F2 z2 c2 | c A A3 c | (cG) G3 c | =B!<(! c d2 e2!<)! |!>(! c2!>)! z2 C C | %13
w: Ro- sen _ so _|schön. Er-|lau- be sie zu|bre- * chen, es|ist die höch- ste|Zeit; ih- re|
w: Herz dir _ ge- *|zinnt, dass|ich _ soll den|Gar- * ten, die|Ro- * sen nicht|sehn? Du ge-|
 ((FA) A2) B B | (AG) G3 F | (E F) G2 A2 | F2 z2 |] %17
w: Schön- * heit, ih- re|Ju- * gend hat|mir mein Herz er-|freut.|
w: fällst _ _ mei- nen|Au- * gen, das|muss _ ich ge-|stehn.|
V:2
!p! C2 | C F F3 F | F2 F2 F C | C2 C2 E2 | F2 z2 C2 | (CF) F3 F | (FD) D2 C C | C2 C2 E2 | %8
w: 1.Er-|lau- be mir, feins|Mäd- chen, in den|Gar- ten zu|gehn, dass|ich _ mag dort|schau- * en, wie die|Ro- sen so|
w: 2.O|Mäd- * chen, o|Mäd- chen, du _|ein- sa- mes|Kind, wer|hat _ den Ge-|dan- * ken _ in|Herz dir ge-|
 F2 z2 F2 | A F F3 A | G2 G3 G | G!<(! c =B2 B2!<)! |!>(! c2!>)! z2 C C | (C2 F2) F F | (FD) D3 D | %15
w: schön. Er-|lau- be sie zu|bre- chen, es|ist die höch- ste|Zeit; ih- re|Schön- heit, ih- re|Ju- * gend hat|
w: zinnt, dass|ich _ soll den|Gar- ten, die|Ro- * sen nicht|sehn? Du ge-|fällst _ mei- nen|Au- * gen, das|
 (C C) D2 E2 | C2 z2 |] %17
w: mir mein Herz er-|freut.|
w: muss _ ich ge-|stehn.|
V:3
!p! A2 | A c c3 d | (cB) B2 A A | G2 (GA) (Bc) | A2 z2 A2 | (Ac) c3 d | (cB) B2 A A | %7
w: 1.Er-|lau- be mir, feins|Mäd- * chen, in den|Gar- ten _ zu _|gehn, dass|ich _ mag dort|schau- * en, wie die|
w: 2.O|Mäd- * chen, o|Mäd- * chen, du _|ein- sa- * mes _|Kind, wer|hat _ den Ge-|dan- * ken _ in|
 G2 (GA) (Bc) | A2 z2 A2 | f c c3 f | (gc) c3 e | d!<(! e f2 g2!<)! |!>(! e2!>)! c2 B2 | %13
w: Ro- sen _ so _|schön. Er-|lau- be sie zu|bre- * chen, es|ist die höch- ste|Zeit; ih- re|
w: Herz dir _ ge- *|zinnt, dass|ich _ soll den|Gar- * ten, die|Ro- * sen nicht|sehn? Du ge-|
 (A2 c2) d d | (cB) B3 A | (G A) B2 c2 | A2 z2 |] %17
w: Schön- heit, ih- re|Ju- * gend hat|mir mein Herz er-|freut.|
w: fällst _ mei- nen|Au- * gen, das|muss _ ich ge-|stehn.|
V:4
!p! F,2 | F, F, F,3 F, | F,2 F,2 F, F, | C,2 C,2 C,2 | F,2 z2 F,2 | F,2 F,3 F, | F,2 F,2 F, F, | %7
w: 1.Er-|lau- be mir, feins|Mäd- chen, in den|Gar- ten zu|gehn, dass|ich mag dort|schau- en, wie die|
w: 2.O|Mäd- * chen, o|Mäd- chen du _|ein- sa- mes|Kind, wer|hat den Ge-|dan- ken _ in|
 C,2 C,2 C,2 | F,2 z2 F,2 | F, F, F,3 F, | E,2 E,3 C, | G,!<(! G, G,2 G,,2!<)! | %12
w: Ro- sen so|schön. Er-|lau- be sie zu|bre- chen, es|ist die höch- ste|
w: Herz dir ge-|zinnt, dass|ich _ soll den|Gar- ten, die|Ro- * sen nicht|
!>(! C,2!>)! E,2 G,2 | ((A,F,) F,2) F, F, | (F,B,,) B,,3 B,, | (C, C,) C,2 C,2 | F,,2 z2 |] %17
w: Zeit; ih- re|Schön- * heit, ih- re|Ju- * gend hat|mir mein Herz er-|freut.|
w: sehn? Du ge-|fällst _ _ mei- nen|Au- * gen, das|muss _ ich ge-|stehn.|

